X: 84
T: Otter's Holt, The
M: 4/4
L: 1/8
R: reel
K: Bmin
e|fBBA FEFB|(3ABA FB ABde|fBBA FEFA|Bd cA Bcde|
fBBA FEFB|A2 FB ABde|faaf egfe| dBAF ~B3:|
c|d2 fd Adfa|bfaf egfe|(3ddd fd Adfa|bfaf e3f|
d2fd Adfa|bfaf efde|fBBA FEFA| (3Bcd cA B3c:|

